X: 33
M: 4/4
L: 1/8
K: D
d>B \
|: "D"A<d d2 "Bm"d<f f>d | "Em"e>d c>B "A7"A3 A |\
   "D"A<d d2 "Bm"d<f f>d | "Em"e>d e>f "A7"e2 d>B |
   "D"A<d d2 "Bm"d<f f>d | "Em"e>d "A7"c>B "D"A3 A |\
   "G"B>G B<d "A7"c>A c<e |1 "D"f2 "G"d2 "D"d2 d>B :|2 "D"f2 "G"d2 "D"d2 "A7"f>g ||
|: "D"a>f d<f "Bm"a2 g>f | "Em"g>e c<e "A7"g2 f>e |\
   "D"d>c d>e "Bm"f>e d<f |
[1 "Em"g2 e2 "A7"e2 f>g |\
   "D"a>f d<f "Bm"a2 g>f | "Em"g>e c<e "A7"g2 f>e |\
   "D"f>e d>f "Em"g>e "A7"a<g | "D"f2 d2 d2 "A7"f>g :|
[2 "Em"e>d e>f "A7"e2 d>B |\
   "D"A<d d2 "Bm"d<f f>d | "Em"e>d "A7"c>B "D"A3 A |\
   "G"B>G B<d "A7"c>A c<e | "D"f2 "G"d2 "D"d4 |]
of the Goathland weekends which the band played for.


